public/assets/img/vector5.svg

<svg width="70" height="66" viewBox="0 0 70 66" fill="none" xmlns="http://www.w3.org/2000/svg">
<path d="M68.9737 63.9476H68.3399L65.9828 59.0542L65.81 53.0058C65.7939 52.4394 65.3211 51.9969 64.7549 52.0093C64.1882 52.0256 63.7422 52.4979 63.7583 53.0644L63.9374 59.3315C63.9415 59.4758 63.976 59.6175 64.0387 59.7475L66.0618 63.9474H23.3819L30.0173 55.6134C30.2759 55.2887 30.4713 54.9236 30.598 54.5285L35.1814 40.2412C35.2896 39.9038 35.492 39.6072 35.7666 39.3833L51.3821 26.6582C51.5987 26.4817 51.905 26.4602 52.144 26.6047L54.9767 28.3162C55.1743 28.4357 55.2971 28.6531 55.2971 28.8838V36.1937C55.2971 37.1321 55.7139 38.0108 56.4406 38.6045L62.3643 43.443C63.0924 44.0378 63.5254 44.9179 63.5522 45.8575L63.6333 48.6909C63.6495 49.2574 64.1264 49.7025 64.6884 49.6875C65.255 49.6712 65.7011 49.1989 65.6849 48.6324L65.6039 45.7991C65.5602 44.2636 64.8527 42.8257 63.6628 41.8538L57.7391 37.0152C57.4915 36.813 57.3494 36.5136 57.3494 36.194V28.8841C57.3494 27.9391 56.847 27.0485 56.0382 26.5599L53.2053 24.8482C52.2261 24.2566 50.9722 24.3445 50.0852 25.0674L43.1287 30.7362C39.5298 27.6446 34.9756 25.9516 30.2052 25.9516C29.4237 25.9516 28.6286 25.9989 27.842 26.0922C27.2792 26.159 26.8771 26.6694 26.9439 27.2323C27.0106 27.7952 27.5216 28.1969 28.084 28.1304C28.7904 28.0466 29.5042 28.0041 30.2052 28.0041C34.3581 28.0041 38.328 29.4358 41.5087 32.0564L39.2658 33.8842C36.6692 31.9092 33.4852 30.8277 30.2052 30.8277C21.9486 30.8277 15.2313 37.5446 15.2313 45.8009C15.2313 51.8443 18.8064 57.197 24.2625 59.5457L22.4524 61.8191C16.3264 58.8531 12.4075 52.6513 12.4075 45.8009C12.4075 38.3701 17.0916 31.6555 24.0635 29.0922C24.5955 28.8967 24.8681 28.3068 24.6726 27.775C24.4769 27.2431 23.8873 26.9701 23.3553 27.1659C19.5804 28.5538 16.349 31.0279 14.0105 34.3205C11.619 37.6876 10.3551 41.6576 10.3551 45.8009C10.3551 53.2863 14.5512 60.0764 21.1465 63.4594L20.7579 63.9476H1.16944C0.602675 63.9476 0.143187 64.407 0.143187 64.9738C0.143187 65.5405 0.602675 66 1.16944 66H68.9737C69.5406 66 70 65.5405 70 64.9738C70 64.407 69.5406 63.9476 68.9737 63.9476ZM29.09 52.5111C28.4871 52.5134 27.8887 52.5158 27.4081 52.5178V46.2217C27.9456 46.2196 28.6215 46.2168 29.2492 46.2146H31.1099L29.09 52.5111ZM30.8829 39.0796C31.7548 39.0796 32.5601 39.53 33.0224 40.2523L31.8284 43.9743C31.529 44.0946 31.208 44.158 30.8829 44.158C30.5533 44.158 29.929 44.1597 29.2484 44.1622H27.408V39.0796H30.8829ZM17.2845 45.8009C17.2845 38.6763 23.0809 32.8802 30.2058 32.8802C32.8695 32.8802 35.4597 33.7059 37.6231 35.2233L34.4703 37.7926C34.2988 37.9323 34.1424 38.0869 33.9986 38.2516C33.5679 37.8532 33.0638 37.5413 32.5153 37.3313V36.3505C32.5153 35.7838 32.0558 35.3243 31.4891 35.3243C30.9223 35.3243 30.4628 35.7838 30.4628 36.3505V37.0271H28.3208V36.3505C28.3208 35.7838 27.8613 35.3243 27.2946 35.3243C26.7278 35.3243 26.2683 35.7838 26.2683 36.3505V37.0271H24.7525C24.1857 37.0271 23.7262 37.4866 23.7262 38.0534C23.7262 38.6201 24.1857 39.0796 24.7525 39.0796H25.3556V52.5221H24.7525C24.1857 52.5221 23.7262 52.9816 23.7262 53.5483C23.7262 54.1151 24.1857 54.5746 24.7525 54.5746H26.3864C26.3864 54.5746 27.2118 54.5709 28.2272 54.5668L25.5955 57.8721C20.5968 55.9698 17.2845 51.2052 17.2845 45.8009Z" fill="#90A1AE"/>
<path d="M40.8027 42.4384L37.6543 45.5867C37.148 46.0931 36.8692 46.7662 36.8692 47.4822V53.3639C36.8692 53.9306 37.3286 54.3901 37.8955 54.3901C38.4624 54.3901 38.9218 53.9306 38.9218 53.3639V47.4822C38.9218 47.3143 38.9872 47.1566 39.1058 47.0379L42.2542 43.8898C42.655 43.489 42.655 42.8392 42.2542 42.4386C41.8534 42.0379 41.2037 42.0377 40.8027 42.4384Z" fill="#90A1AE"/>
<path d="M45.4138 37.6879L44.5055 38.5962C44.1047 38.9969 44.1047 39.6467 44.5055 40.0474C44.706 40.2477 44.9687 40.348 45.2313 40.348C45.4939 40.348 45.7566 40.2478 45.9571 40.0474L46.8654 39.1391C47.2662 38.7383 47.2662 38.0885 46.8654 37.6879C46.4643 37.2871 45.8146 37.2871 45.4138 37.6879Z" fill="#90A1AE"/>
<path d="M58.0061 56.1957C58.573 56.1957 59.0324 55.7362 59.0324 55.1695V48.2099C59.0324 47.9377 58.9243 47.6766 58.7319 47.4843L57.0494 45.8018C56.6484 45.401 55.9987 45.401 55.598 45.8018C55.1972 46.2026 55.1972 46.8524 55.598 47.253L56.98 48.6348V55.1695C56.9798 55.7362 57.4392 56.1957 58.0061 56.1957Z" fill="#90A1AE"/>
<path d="M41.7671 25.9167C42.0673 26.1546 42.4263 26.2756 42.788 26.2756C43.0779 26.2756 43.3694 26.1979 43.6332 26.0404L49.1543 22.7462C49.912 22.2943 50.1785 21.3306 49.7615 20.5527C48.7122 18.5956 47.1251 17.3897 45.0441 16.9685C44.2157 16.8008 43.4005 17.2802 43.1447 18.0829L41.2211 24.1279C41.012 24.7857 41.2262 25.4879 41.7671 25.9167ZM44.9866 19.063C46.1686 19.385 47.081 20.0842 47.7604 21.1879L43.5023 23.7285L44.9866 19.063Z" fill="#90A1AE"/>
<path d="M38.316 24.1746C38.3607 24.1803 38.4051 24.1832 38.4491 24.1832C38.9572 24.1832 39.3985 23.806 39.4655 23.2886L39.8552 20.2781C39.928 19.716 39.5313 19.2014 38.9692 19.1286C38.4071 19.0554 37.8925 19.4525 37.8198 20.0146L37.4301 23.0251C37.3572 23.5872 37.7539 24.1018 38.316 24.1746Z" fill="#90A1AE"/>
<path d="M1.30354 42.3691L4.2965 43.9081C4.64146 44.0854 5.01474 44.1751 5.39076 44.1751C5.64528 44.1751 5.90102 44.134 6.14992 44.0514C6.7669 43.8464 7.26388 43.4118 7.54877 42.8289L21.0459 15.2988C21.1327 15.3073 21.2193 15.3125 21.3059 15.3125C21.7592 15.3125 22.2046 15.1954 22.5994 14.9779L33.8693 20.7732C34.1161 20.9002 34.3827 20.9623 34.6476 20.9623C35.0411 20.9623 35.4308 20.8249 35.7453 20.5582C36.2714 20.1123 36.4753 19.3997 36.2646 18.7429L36.1104 18.2621C34.9169 14.5419 32.3462 11.5091 28.8714 9.72224L26.2693 8.38419C26.3313 7.59661 26.0387 6.81066 25.4657 6.25541L26.4597 4.22078C27.0287 3.05637 26.5539 1.62679 25.4012 1.03391L23.9008 0.26247C22.7485 -0.33027 21.3091 0.114969 20.6928 1.2553L19.617 3.24588C19.1898 3.16706 18.7471 3.19443 18.3218 3.33071C17.9845 3.43894 17.6783 3.60943 17.4154 3.83123L14.8149 2.494C11.3406 0.707573 7.37814 0.380827 3.65763 1.57411L3.17693 1.72831C2.52013 1.93889 2.05913 2.51918 2.00235 3.20661C1.94556 3.89403 2.3053 4.54205 2.91886 4.85758L14.1858 10.6513C14.2059 10.8221 14.2424 10.9921 14.296 11.1595C14.4096 11.5136 14.5931 11.8323 14.8312 12.1036L5.61736 29.206C5.34862 29.7049 5.53512 30.3274 6.03416 30.5962C6.18905 30.6795 6.35572 30.7191 6.52005 30.7191C6.88526 30.7191 7.23898 30.5236 7.42439 30.1794L16.5684 13.2064L19.1379 14.5278L5.70521 41.9267C5.64952 42.0407 5.55455 42.0864 5.50297 42.1036C5.45138 42.1207 5.3478 42.141 5.23505 42.083L2.24208 40.5439C2.12919 40.4859 2.08541 40.39 2.06926 40.3381C2.05325 40.2861 2.03519 40.1823 2.09622 40.0695L5.34917 34.0314C5.61791 33.5324 5.4314 32.9101 4.93237 32.6413C4.43348 32.3727 3.81102 32.559 3.54214 33.058L0.289873 39.0949C-0.0192343 39.6668 -0.0835462 40.3239 0.108568 40.945C0.300683 41.566 0.725278 42.0717 1.30354 42.3691ZM34.0438 18.5549L23.942 13.3604L25.514 10.3038L27.933 11.5477C30.8153 13.0298 32.9741 15.5093 34.0438 18.5549ZM22.9624 2.0879L24.4628 2.85933C24.6293 2.94499 24.698 3.15174 24.6158 3.32004L23.6906 5.21333L21.4968 4.08518L22.4987 2.23143C22.5878 2.06655 22.7956 2.00211 22.9624 2.0879ZM18.9489 5.2853C19.1053 5.23522 19.2717 5.24891 19.4177 5.32402L23.8923 7.62493C24.1936 7.77996 24.3128 8.15117 24.1578 8.4526L21.8568 12.927C21.7018 13.2285 21.3304 13.3474 21.0292 13.1925L16.5545 10.8914C16.4085 10.8165 16.3005 10.6891 16.2503 10.5327C16.2002 10.3764 16.2139 10.2099 16.289 10.064L18.5902 5.58947C18.6653 5.44334 18.7927 5.33538 18.9489 5.2853ZM13.8765 4.31943L16.2955 5.56334L14.7235 8.62008L4.62176 3.42539C7.72145 2.52383 10.9942 2.83731 13.8765 4.31943Z" fill="#90A1AE"/>
</svg>

<svg width="70" height="66" fill="none" xmlns="http://www.w3.org/2000/svg"><path d="M68.974 63.948h-.634l-2.357-4.894-.173-6.048a1.026 1.026 0 0 0-2.052.059l.18 6.267c.003.144.038.285.1.416l2.024 4.2h-42.68l6.635-8.335c.259-.324.454-.69.581-1.084l4.583-14.288c.109-.337.311-.634.586-.858l15.615-12.725a.665.665 0 0 1 .762-.053l2.833 1.711c.197.12.32.337.32.568v7.31c0 .938.417 1.817 1.144 2.41l5.923 4.839a3.235 3.235 0 0 1 1.188 2.415l.081 2.833a1.026 1.026 0 1 0 2.052-.059l-.081-2.833a5.285 5.285 0 0 0-1.941-3.945l-5.924-4.839a1.056 1.056 0 0 1-.39-.821v-7.31a2.73 2.73 0 0 0-1.31-2.324l-2.834-1.712a2.722 2.722 0 0 0-3.12.22l-6.956 5.668a19.768 19.768 0 0 0-12.924-4.784c-.781 0-1.576.047-2.363.14a1.026 1.026 0 1 0 .242 2.038c.706-.083 1.42-.126 2.121-.126a17.72 17.72 0 0 1 11.304 4.052l-2.243 1.828a14.976 14.976 0 0 0-9.06-3.056c-8.257 0-14.975 6.717-14.975 14.973a14.92 14.92 0 0 0 9.031 13.745l-1.81 2.273a17.788 17.788 0 0 1-10.045-16.018c0-7.43 4.685-14.146 11.657-16.709a1.026 1.026 0 1 0-.709-1.926 19.802 19.802 0 0 0-9.345 7.155 19.716 19.716 0 0 0-3.655 11.48 19.837 19.837 0 0 0 10.791 17.658l-.388.489H1.169a1.026 1.026 0 1 0 0 2.052h67.805a1.026 1.026 0 1 0 0-2.052ZM29.09 52.51l-1.682.007v-6.296l1.841-.007h1.86L29.09 52.51Zm1.793-13.431c.872 0 1.677.45 2.14 1.172l-1.195 3.722c-.299.12-.62.184-.945.184l-1.635.004h-1.84V39.08h3.475ZM17.285 45.8c0-7.124 5.796-12.92 12.92-12.92 2.665 0 5.255.826 7.418 2.343l-3.153 2.57c-.171.14-.328.294-.471.459a4.613 4.613 0 0 0-1.484-.92v-.982a1.026 1.026 0 0 0-2.052 0v.677H28.32v-.677a1.026 1.026 0 0 0-2.053 0v.677h-1.515a1.026 1.026 0 0 0 0 2.053h.603v13.442h-.604a1.026 1.026 0 1 0 0 2.053h1.634l1.841-.008-2.631 3.305a12.875 12.875 0 0 1-8.311-12.071Z" fill="#90A1AE"/><path d="m40.803 42.438-3.149 3.149a2.663 2.663 0 0 0-.785 1.895v5.882a1.026 1.026 0 0 0 2.053 0v-5.882c0-.168.065-.325.184-.444l3.148-3.148a1.026 1.026 0 1 0-1.451-1.452ZM45.414 37.688l-.909.908a1.026 1.026 0 1 0 1.452 1.451l.908-.908a1.026 1.026 0 1 0-1.451-1.451ZM58.006 56.196c.567 0 1.026-.46 1.026-1.026v-6.96c0-.272-.108-.533-.3-.726l-1.683-1.682a1.026 1.026 0 0 0-1.451 1.451l1.382 1.382v6.535c0 .566.46 1.026 1.026 1.026ZM41.767 25.917a1.64 1.64 0 0 0 1.866.123l5.521-3.294a1.645 1.645 0 0 0 .607-2.193c-1.049-1.957-2.636-3.163-4.717-3.585a1.646 1.646 0 0 0-1.9 1.115l-1.923 6.045c-.209.658.005 1.36.546 1.789Zm3.22-6.854c1.182.322 2.094 1.021 2.773 2.125l-4.258 2.54 1.485-4.665ZM38.316 24.175a1.026 1.026 0 0 0 1.15-.886l.39-3.01a1.026 1.026 0 1 0-2.036-.264l-.39 3.01a1.026 1.026 0 0 0 .886 1.15ZM1.304 42.37l2.992 1.538a2.388 2.388 0 0 0 1.854.143 2.381 2.381 0 0 0 1.399-1.222l13.497-27.53a2.684 2.684 0 0 0 1.553-.32l11.27 5.794a1.698 1.698 0 0 0 2.396-2.03l-.155-.48a14.531 14.531 0 0 0-7.239-8.54L26.27 8.383a2.68 2.68 0 0 0-.803-2.129l.994-2.034A2.412 2.412 0 0 0 25.4 1.034l-1.5-.772a2.412 2.412 0 0 0-3.208.993l-1.076 1.99a2.655 2.655 0 0 0-1.295.086 2.665 2.665 0 0 0-.907.5l-2.6-1.337a14.533 14.533 0 0 0-11.157-.92l-.481.154c-.657.21-1.118.791-1.175 1.479a1.694 1.694 0 0 0 .917 1.65l11.267 5.794a2.66 2.66 0 0 0 .645 1.452L5.617 29.207a1.026 1.026 0 0 0 1.807.973l9.144-16.973 2.57 1.322L5.705 41.927a.345.345 0 0 1-.47.156l-2.993-1.54a.345.345 0 0 1-.146-.474l3.253-6.038a1.026 1.026 0 1 0-1.807-.973L.29 39.095a2.382 2.382 0 0 0-.181 1.85 2.381 2.381 0 0 0 1.195 1.424Zm32.74-23.815L23.942 13.36l1.572-3.056 2.419 1.244a12.486 12.486 0 0 1 6.11 7.007ZM22.962 2.088l1.5.771a.349.349 0 0 1 .154.461l-.925 1.893-2.194-1.128 1.002-1.854a.348.348 0 0 1 .463-.143ZM18.95 5.285a.61.61 0 0 1 .469.039l4.474 2.3c.302.156.42.527.266.829l-2.301 4.474a.615.615 0 0 1-.828.266l-4.474-2.302a.61.61 0 0 1-.265-.827l2.3-4.475a.61.61 0 0 1 .359-.304Zm-5.073-.966 2.42 1.244-1.572 3.057L4.621 3.425c3.1-.901 6.372-.588 9.255.894Z" fill="#90A1AE"/></svg>
